X:1
T:Tipstaff Strathspey
C:Robert Petrie
L:1/8
M:4/4
I:linebreak $
K:G
V:1 treble 
V:1
 c | B<Gg>G DG-GA/B/ | c<Aa>A EA-A.c | dB-Bd ec-ce | g>dTc>B (TB2 A>)c | BGgG D(G G)A/B/ |$ %6
 cAaA EA-Ac | Bg-ge (f/e/f/g/) ag | fd f/e/d/^c/ dDd || d | (d<=f)(Tf>e) (Ted)(Tdc) |$ %11
 cBA^G A2 A,A/B/ | c<eTe>d d>cB<d | g<dTc>B TB2 A z | G,<G-TG>B A,<ATA>c | B,<TBB>d C<Tc-c>e |$ %16
 B>de>f g>dTc>B | TA>GA<B G2 G,2 |] %18
